X:273
T: Kangri xiaochang
N: C1770
O: China, Shandong Linyi
S: III, 349, 2)]
R: Xiaodiao, Shandong xiaoqu]
M: 2/4
L: 1/16
K: F
d2d2dcA2 | c2c4f2 | dfdcAcd2 | F8
d3fc2d2 | f2fgf2dc | A2Acd2f2 | c3dc2A2
c2D2F2G2 | A2A2d3f | c2G2A2G2 | F8
A2AAAGF2 | G2G6
dddcdcA2 | c8
d3fc2d2 | f8
z8 | d2dfdcA2 | c3dc2A2 | c2D2F2G2 | A4d3f | c2G2A2c2 | f8

